X:1
T:Title
%%score ( 1 2 ) { ( 3 5 ) | 4 }
L:1/8
Q:1/4=100
M:6/4
K:D
V:1 treble nm="Grand Piano, Piano"
V:2 treble 
V:3 bass nm="Grand Piano, Piano"
V:5 bass 
V:4 bass 
V:1
 [DA]4 [CA]2 [DA]4 [DB]2 | E2 F2 [CG]2 [DF]6 | D6 [EG]6 | [CE]12 | [DA]4 [CA]2 [DA]4 [DB]2 | %5
w: 1.~We~ heave~ heard~ the~|joy * ful~ sound:~|Je sus~|saves!~|Spread~ the~ ti dings~|
 E2 F2 [CG]2 [DF]6 | [FB]6 [E^G]6 | [EA]12 | [Ec]4 [Ec]2 [Dd]4 [DA]2 | G2- [DG]2 [CA]2 [DF]6 | %10
w: all~ * a round:~|Je sus~|saves!~|Bear~ the~ news~ to~|ev' * ry~ land,~|
 [Ec]4 [Ec]2 [Dd]4 [DF]2 | A2 G2 [DF]2 [CE]6 | D4 [DB]2 [DA]4 [CA]2 | A2- [EA]2 [Fd]2 [DB]6 | %14
w: Climb~ the~ steeps~ and~|cross~ * the~ waves;~|On ward!~ tis~ our~|Lord's~ * com mand;~|
 [Ge]6 [Gc]6 | [Fd]12 |] %16
w: Je sus~|saves!~|
V:2
 x12 | .D6 z6 | x12 | x12 | x12 | .D6 z6 | x12 | x12 | x12 | .E6 z6 | x12 | .E6 z6 | x12 | .D6 z6 | %14
 x12 | x12 |] %16
V:3
 F,4 G,2 A,4 D2 | A,4 A,2 A,6 | B,6 B,6 | A,12 | F,4 G,2 A,4 D2 | A,4 A,2 A,6 | D6 B,6 | C12 | %8
 A,4 A,2 A,4 A,2 | B,4 A,2 A,6 | A,4 A,2 A,4 A,2 | A,4 A,2 A,6 | F,4 G,2 F,4 G,2 | .A,6 z6 | %14
 B,6 A,6 | A,12 |] %16
V:4
 D,4 E,2 F,4 G,2 | z4 A,,2 D,6 | G,6 E,6 | z12 | D,4 E,2 F,4 G,2 | z4 A,,2 D,6 | B,,6 E,6 | A,,12 | %8
 G,4 G,2 F,4 F,2 | E,4 A,,2 D,6 | G,4 G,2 F,4 D,2 | C,4 D,2 A,,6 | B,,4 G,,2 D,4 E,2 | %13
 .F,4 D,2 G,6 | E,6 z6 | D,12 |] %16
V:5
 x12 | x12 | x12 | x12 | x12 | x12 | x12 | x12 | x12 | x12 | x12 | x12 | x12 | z2 E,2 A,2 B,6 | %14
 x12 | x12 |] %16

